X:4726
L:1/8
M:2/4
K:F
"^A""F" FG AB | .c2 .d2 | .c2 (!>!f2 | f)e .d.c |"C7" .B2 .G2 | .A2 .F2 | .G2 (!>!d2 | d).c .B.G | 
"F" FG AB | .c2 d2 | .c2 (!>!f2 | f).e .d.c |"G7" .=B2 .A2 | .A2 .=B2 |"C" cc/c/ cc | c2 z2 :: 
"^B""F" Ac/c/ cc | d2 c2 | Ac/c/ cc | d2 c2 |"C7" eG/G/ GG | d2 c2 | B2 G2 |"F" A2 F2 | Ac/c/ cc | 
 d2 c2 | Ac/c/ cc | d2 c2 |"C7" eG/G/ GG | d2 c2 | B2 G2 |"F" FF F z ::[K:Bb]"^C""Bb" d3 d | 
"F7" e3 e |"Bb" d2 .B2 | z (d cd) |"F7" c2 A2 | z (c Ac) |"Bb" B2 d2 | d2 z2 | d3 d |"F7" e3 e | 
"Bb" d2 B2 | z (d cd) |"F7" c2 A2 | z (c Ac) |"Bb" .B2 .B2 | B2 z2 :|

